X: 032140
T: Curlews (The)
C: Joe Liddy
Z: BB
S: "The Leitrim Fiddler" (Dublin 1981)
L: 1/8
M: 4/4
R: reel
Q: 1/4 = 180
K: Ador
AG |: EAAG AdBG | EG (3GGG EG D2 | EA A2 ABcd | e2 de gedB |
A2 AG AdBG | EG (3GGG EG D2 | EA A2 GABd | efgd BA A2 :|
ea a2 bgaf | (3gfe fd edBG | A2 BA GEDG | EA (3AAA GABd |
ea a2 (3bag af | gefd edBG | A2 BA GEDG | EAAG A2 Bd ||
ea a2 bgaf | gefd edBG | A2 BA GEDG | EAAE GABd | 
eagb aged | gedB GABG | A2 BA GEDG | EAAG A4 ||
%%%%%%%%%%%%%%%%%%%%%%%
